packages/icons/src/secrets-blue.svg

<svg fill="none" viewBox="0 0 64 64" xmlns="http://www.w3.org/2000/svg"><path clip-rule="evenodd" d="m35.7424 7.66436 5.153 4.98964c1.4105 1.3724 1.8713 3.0627 1.2848 4.7732-.405 1.1899-1.194 1.9743-1.2848 2.0621l-5.153 4.9897c-.5509.5334-1.1534.9266-1.7873 1.1744l.0001 23.1269-.0001 5.5526c0 .856-.7164 1.55-1.6 1.55h-5.7316c-.8837 0-1.6-.694-1.6-1.55 0-.8561.7163-1.55 1.6-1.55h4.1316l.0001-2.4526h-4.1318c-.8837 0-1.6-.694-1.6-1.55 0-.8561.7163-1.55 1.6-1.55h4.1318l-.0001-21.5288c-1.1926-.4042-1.9757-1.143-2.0649-1.2293l-5.153-4.9896c-1.4104-1.3725-1.8713-3.0628-1.2848-4.7665.405-1.19 1.194-1.9742 1.2848-2.0621l5.153-4.98964c1.4174-1.36572 3.1631-1.81195 4.9226-1.24403 1.2289.39214 2.0389 1.15613 2.1296 1.24403zm-2.0951 2.0165c-.086-.07154-.4967-.41324-1.033-.56965-.8518-.2434-1.4244.18254-1.8364.57468l-1.5291 1.48061 2.9675 2.8735 2.9676-2.8735-1.5222-1.47385c-.0026-.00202-.0075-.00603-.0144-.01179zm-8.0274 5.00164c-.0736.0829-.4268.4807-.5885 1.0004-.2513.818.1886 1.3792.5935 1.7781l1.5292 1.4807 2.9675-2.8734-2.9675-2.8735-1.5222 1.4739c-.0021.0025-.0062.0072-.012.0138zm5.1653 7.7731c.0858.0714.4967.4133 1.0331.5697.8449.2434 1.4244-.1825 1.8364-.5747l1.5292-1.4806-2.9676-2.8735-2.9675 2.8735 1.5221 1.4739c.0026.002.0074.006.0143.0117zm8.0274-5.0015c.0734-.0826.4269-.4806.5885-1.0005.2515-.8248-.1885-1.3792-.5934-1.7781l-1.5291-1.4807-2.9676 2.8735 2.9676 2.8734 1.5221-1.4739c.002-.0025.0061-.0071.0119-.0137z" fill="#0278d5" fill-rule="evenodd"/></svg>

<svg viewBox="0 0 64 64" fill="none" xmlns="http://www.w3.org/2000/svg">
<path fill-rule="evenodd" clip-rule="evenodd" d="M35.7424 7.66436L40.8954 12.654C42.3059 14.0264 42.7667 15.7167 42.1802 17.4272C41.7752 18.6171 40.9862 19.4015 40.8954 19.4893L35.7424 24.479C35.1915 25.0124 34.589 25.4056 33.9551 25.6534L33.9552 48.7803V48.7803L33.9551 54.3329C33.9551 55.1889 33.2387 55.8829 32.3551 55.8829L26.6235 55.8829C25.7398 55.8829 25.0235 55.1889 25.0235 54.3329C25.0235 53.4768 25.7398 52.7829 26.6235 52.7829H30.7551L30.7552 50.3303H26.6234C25.7397 50.3303 25.0234 49.6363 25.0234 48.7803C25.0234 47.9242 25.7397 47.2303 26.6234 47.2303H30.7552L30.7551 25.7015C29.5625 25.2973 28.7794 24.5585 28.6902 24.4722L23.5372 19.4826C22.1268 18.1101 21.6659 16.4198 22.2524 14.7161C22.6574 13.5261 23.4464 12.7419 23.5372 12.654L28.6902 7.66436C30.1076 6.29864 31.8533 5.85241 33.6128 6.42033C34.8417 6.81247 35.6517 7.57646 35.7424 7.66436ZM33.6473 9.68086C33.5613 9.60932 33.1506 9.26762 32.6143 9.11121C31.7625 8.86781 31.1899 9.29375 30.7779 9.68589L29.2488 11.1665L32.2163 14.04L35.1839 11.1665L33.6617 9.69265C33.6591 9.69063 33.6542 9.68662 33.6473 9.68086ZM25.6199 14.6825C25.5463 14.7654 25.1931 15.1632 25.0314 15.6829C24.7801 16.5009 25.22 17.0621 25.6249 17.461L27.1541 18.9417L30.1216 16.0683L27.1541 13.1948L25.6319 14.6687C25.6298 14.6712 25.6257 14.6759 25.6199 14.6825ZM30.7852 22.4556C30.871 22.527 31.2819 22.8689 31.8183 23.0253C32.6632 23.2687 33.2427 22.8428 33.6547 22.4506L35.1839 20.97L32.2163 18.0965L29.2488 20.97L30.7709 22.4439C30.7735 22.4459 30.7783 22.4499 30.7852 22.4556ZM38.8126 17.4541C38.886 17.3715 39.2395 16.9735 39.4011 16.4536C39.6526 15.6288 39.2126 15.0744 38.8077 14.6755L37.2786 13.1948L34.311 16.0683L37.2786 18.9417L38.8007 17.4678C38.8027 17.4653 38.8068 17.4607 38.8126 17.4541Z" fill="#0278D5"/>
</svg>
